X:147
T: Altes Mbel (2-38), S. 99f
N: K1122
O: Luxemburg
S: KINTZELE, Guillaume: An der Ucht, Bd. 2, Luxemburg 1927]
R: Spaá-, Scherzlied]
M: 2/4
L: 1/16
K: G
 | G2G2D2D2 | E2E2D2D2 | C2C2B,2B,2 | D2D2A,4
G2G2D2D2 | E2E2D2D2 | C2C2B,2B,2 | D2D2A,4
G2G2A2A2 | B2G2A2A2 | G2G2A2A2 | B2G2A4
G2G2d2d2 | e2e2d2d2 | c2c2B2G2 | A2F2G4
G3AB2G2 | E2E2E4 | A3Bc2A2 | G2B2d4

